!!!!SEGMENT: Gom1002a-Missa_Quam_pulchra_es-Kyrie.krn
!!!id: Gom1002a
!!!AGN: Mass; Kyrie
!!!SCT: Schmidt-Görg (1963)
!!!voices: 6
!!!COM: Nicolas Gombert
!!!OPR: Missa Quam pulchra es 
!!!OTL: Kyrie
**kern	**text	**kern	**text	**kern	**text	**kern	**text	**kern	**text	**kern	**text
*part6	*part6	*part5	*part5	*part4	*part4	*part3	*part3	*part2	*part2	*part1	*part1
*staff6	*staff6	*staff5	*staff5	*staff4	*staff4	*staff3	*staff3	*staff2	*staff2	*staff1	*staff1
*I"Bassus II	*	*I"Bassus I	*	*I"Tenor	*	*I"Altus II	*	*I"Altus I	*	*I"Superius	*
*I'B. II	*	*I'B. I	*	*I'T	*	*I'A. II	*	*I'A. I	*	*I'S	*
*clefF4	*	*clefF4	*	*clefGv2	*	*clefGv2	*	*clefGv2	*	*clefG2	*
*k[b-]	*	*k[b-]	*	*k[b-]	*	*k[b-]	*	*k[b-]	*	*k[b-]	*
*F:	*	*F:	*	*F:	*	*F:	*	*F:	*	*F:	*
*M2/1	*	*M2/1	*	*M2/1	*	*M2/1	*	*M2/1	*	*M2/1	*
*met(C|)	*	*met(C|)	*	*met(C|)	*	*met(C|)	*	*met(C|)	*	*met(C|)	*
!!section: Kyrie I
!!!OMD: Kyrie I
=1	=1	=1	=1	=1	=1	=1	=1	=1	=1	=1	=1
0r	.	0r	.	0r	.	0r	.	0r	.	2.f	Ky-
.	.	.	.	.	.	.	.	.	.	4g	.
.	.	.	.	.	.	.	.	.	.	2a	.
.	.	.	.	.	.	.	.	.	.	2b-y	-ri-
=2	=2	=2	=2	=2	=2	=2	=2	=2	=2	=2	=2
0r	.	0r	.	0r	.	0r	.	2.F	Ky-	2a	-e
.	.	.	.	.	.	.	.	.	.	4g	.
.	.	.	.	.	.	.	.	4G	.	4f	.
.	.	.	.	.	.	.	.	2A	.	2e	.
.	.	.	.	.	.	.	.	2B-y	-ri-	[2g	e-
=3	=3	=3	=3	=3	=3	=3	=3	=3	=3	=3	=3
0r	.	1r	.	0r	.	0r	.	1A	-e	2g]	.
.	.	.	.	.	.	.	.	.	.	2f	.
.	.	2.C	Ky-	.	.	.	.	2.G	e-	2e	.
.	.	.	.	.	.	.	.	.	.	[2g	-le-
.	.	4D	.	.	.	.	.	4F	.	.	.
=4	=4	=4	=4	=4	=4	=4	=4	=4	=4	=4	=4
0r	.	2E	.	0r	.	0r	.	2G	.	2g]	.
.	.	2F	-ri-	.	.	.	.	2A	.	1f	.
.	.	1C	-e	.	.	.	.	1G	-le-	.	.
.	.	.	.	.	.	.	.	.	.	2e	.
=5	=5	=5	=5	=5	=5	=5	=5	=5	=5	=5	=5
0r	.	1D	e-	2.F	Ky-	0r	.	4F	.	1f	.
.	.	.	.	.	.	.	.	4G	.	.	.
.	.	.	.	.	.	.	.	4A	.	.	.
.	.	.	.	4G	.	.	.	4B-y	.	.	.
.	.	2C	-le-	2A	.	.	.	2c	.	2e	.
.	.	2BB-y	.	2B-y	-ri-	.	.	[2d	.	2d	-i-
=6	=6	=6	=6	=6	=6	=6	=6	=6	=6	=6	=6
0r	.	2.C	.	2G	-e	2.c	Ky-	4d]	.	1e	-son,
.	.	.	.	.	.	.	.	4c	.	.	.
.	.	.	.	2A	e-	.	.	1c	.	.	.
.	.	4BB-y	.	.	.	4d	.	.	.	.	.
.	.	2C	.	2G	-le-	2e	.	.	.	1r	.
.	.	2D	.	2F	.	2f	-ri-	2B-y	.	.	.
=7	=7	=7	=7	=7	=7	=7	=7	=7	=7	=7	=7
0r	.	1.C	.	2.G	.	2.e	-e	2c	.	2.c	Ky-
.	.	.	.	.	.	.	.	4B-y	.	.	.
.	.	.	.	4F	.	4d	.	4A	.	4d	.
.	.	.	.	2E	.	2c	.	2G	.	2e	.
.	.	2BB-y	-i-	2D	.	[2d	e-	[2B-y	.	2f	-ri-
=8	=8	=8	=8	=8	=8	=8	=8	=8	=8	=8	=8
2.FF	Ky-	1C	-son,	1F	.	4d]	.	4B-]	.	1c	-e,
.	.	.	.	.	.	4c	.	4A	.	.	.
.	.	.	.	.	.	1c	.	1A	.	.	.
4GG	.	.	.	.	.	.	.	.	.	.	.
2AA	.	1r	.	2E	.	.	.	.	.	1r	.
2BB-y	-ri-	.	.	2D	.	2B-y	.	2G	-i-	.	.
=9	=9	=9	=9	=9	=9	=9	=9	=9	=9	=9	=9
2.AA	-e	0r	.	2F	.	2c	-le-	2A	-son,	2.c	Ky-
.	.	.	.	1E	.	4B-y	.	1c	.	.	.
4BB-y	.	.	.	.	.	4A	.	.	.	4d	.
2C	.	.	.	.	.	2G	.	.	.	2e	.
[2D	e-	.	.	2D	-i-	2F	.	4B-y	.	[2f	.
.	.	.	.	.	.	.	.	4A	.	.	.
=10	=10	=10	=10	=10	=10	=10	=10	=10	=10	=10	=10
4D]	.	2.C	Ky-	1E	-son,	1G	.	1c	.	4f]	.
4C	.	.	.	.	.	.	.	.	.	4e	.
1C	.	.	.	.	.	.	.	.	.	1e	.
.	.	4D	.	.	.	.	.	.	.	.	.
.	.	2E	.	1r	.	2A	.	1r	.	.	.
2BB-y	-lei-	2F	-ri-	.	.	2B-y	.	.	.	2d	-ri-
=11	=11	=11	=11	=11	=11	=11	=11	=11	=11	=11	=11
2.C	-son,	2E	-e e-	1r	.	2G	.	2r	.	1e	-e
.	.	2C	-lei-	.	.	1c	.	2.G	Ky-	.	.
4BB-y	.	.	.	.	.	.	.	.	.	.	.
1GG	.	1D	-son,	1G	Ky-	.	.	.	.	2.d	e-
.	.	.	.	.	.	.	.	4A	.	.	.
.	.	.	.	.	.	2B-y	.	4B-y	.	.	.
.	.	.	.	.	.	.	.	4G	.	4e	.
=12	=12	=12	=12	=12	=12	=12	=12	=12	=12	=12	=12
0r	.	0r	.	2F	.	2c	.	4A	.	2f	.
.	.	.	.	.	.	.	.	4F	.	.	.
.	.	.	.	2E	-ri-	2e	.	1c	.	2g	.
.	.	.	.	2F	-e	4d	.	.	.	2a	-lei-
.	.	.	.	.	.	4c	.	.	.	.	.
.	.	.	.	2G	e-	2d	.	2B-y	-ri-	4g	.
.	.	.	.	.	.	.	.	.	.	4f	.
=13	=13	=13	=13	=13	=13	=13	=13	=13	=13	=13	=13
1r	.	2r	.	1A	-lei-	4c	.	0c	-e,	0e	-son,
.	.	.	.	.	.	4d	.	.	.	.	.
.	.	2.C	Ky-	.	.	4e	.	.	.	.	.
.	.	.	.	.	.	4f	.	.	.	.	.
1C	Ky-	.	.	2G	.	2g	.	.	.	.	.
.	.	4D	.	.	.	.	.	.	.	.	.
.	.	4E	.	4F	.	2G	.	.	.	.	.
.	.	4C	.	4E	.	.	.	.	.	.	.
=14	=14	=14	=14	=14	=14	=14	=14	=14	=14	=14	=14
2BB-y	.	4D	.	2F	.	2B-y	.	0r	.	0r	.
.	.	4BB-y	.	.	.	.	.	.	.	.	.
2AA	-ri-	2.F	.	2A	.	2c	.	.	.	.	.
2BB-y	-e	.	.	1G	.	2d	.	.	.	.	.
.	.	4D	.	.	.	.	.	.	.	.	.
2C	e-	2E	.	.	.	[2c	.	.	.	.	.
=15	=15	=15	=15	=15	=15	=15	=15	=15	=15	=15	=15
2.D	-lei-	2F	.	1F	-son,	2c]	.	2.F	Ky-	2r	.
.	.	2D	.	.	.	2B-y	.	.	.	1f	Ky-
4C	.	.	.	.	.	.	.	4G	-ri-	.	.
4AA	.	2C	.	1r	.	1c	.	2A	-e	.	.
4BB-y	.	.	.	.	.	.	.	.	.	.	.
2C	.	2E	-ri-	.	.	.	.	2G	e-	2e	-ri-
=16	=16	=16	=16	=16	=16	=16	=16	=16	=16	=16	=16
2BB-y	.	1D	-e	2r	.	2.d	.	1B-y	-le-	2f	-e
2GG	.	.	.	1G	Ky-	.	.	.	.	2g	e-
.	.	.	.	.	.	4B-y	-i-	.	.	.	.
1AA	.	2r	.	.	.	1c	-son,	2A	.	2c	-lei-
.	.	2C	e-	2F	-ri-	.	.	[2c	.	2a	.
=17	=17	=17	=17	=17	=17	=17	=17	=17	=17	=17	=17
1GG	.	1D	-lei-	1G	-e	0r	.	2c]	.	4b-y	.
.	.	.	.	.	.	.	.	.	.	4g	.
.	.	.	.	.	.	.	.	2B-y	.	2b-y	.
1FF	-son,	[1F	.	1A	e-	.	.	1c	.	2a	.
.	.	.	.	.	.	.	.	.	.	2f	.
=18	=18	=18	=18	=18	=18	=18	=18	=18	=18	=18	=18
0r	.	2F]	.	2D	-le-	2r	.	2d	.	2a	.
.	.	2E	.	2E	.	1c	Ky-	2G	.	2g	.
.	.	1D	.	1F	.	.	.	2A	.	2f	.
.	.	.	.	.	.	2B-y	.	4G	.	2d	.
.	.	.	.	.	.	.	.	4F	.	.	.
=19	=19	=19	=19	=19	=19	=19	=19	=19	=19	=19	=19
2r	.	1C	-son,	1E	-i-	1c	.	1G	.	4e	.
.	.	.	.	.	.	.	.	.	.	4f	.
1C	ky-	.	.	.	.	.	.	.	.	4g	.
.	.	.	.	.	.	.	.	.	.	4e	.
.	.	1r	.	1D	-son,	1d	.	2A	.	2f	.
2BB-y	.	.	.	.	.	.	.	2B-y	.	[2g	.
=20	=20	=20	=20	=20	=20	=20	=20	=20	=20	=20	=20
2C	.	2r	.	0r	.	2c	.	1A	.	2g]	.
2D	-ri-	1F	Ky-	.	.	2A	-ri-	.	.	2f	.
1GG	-e,	.	.	.	.	2B-y	-e	1G	.	4g	.
.	.	.	.	.	.	.	.	.	.	4a	.
.	.	2E	.	.	.	4A	.	.	.	2b-y	.
.	.	.	.	.	.	4G	.	.	.	.	.
=21	=21	=21	=21	=21	=21	=21	=21	=21	=21	=21	=21
1r	.	2F	.	1r	.	2A	.	1d	.	2a	.
.	.	2G	-ri-	.	.	2B-y	e-	.	.	2g	-i-
2r	.	4C	-e	2.G	Ky-	2c	-le-	2.e	.	[1g	-son,
.	.	4D	.	.	.	.	.	.	.	.	.
[2C	Ky-	4E	.	.	.	[2G	.	.	.	.	.
.	.	4F	.	4F	-ri-	.	.	4d	.	.	.
=22	=22	=22	=22	=22	=22	=22	=22	=22	=22	=22	=22
4C]	.	2.G	.	2E	-e	4G]	.	2c	.	1g]	.
4BB-y	.	.	.	.	.	4A	.	.	.	.	.
2GG	.	.	.	2D	e-	4B-y	.	2B-y	.	.	.
.	.	4F	.	.	.	8AL	.	.	.	.	.
.	.	.	.	.	.	8GJ	.	.	.	.	.
2AA	.	2E	.	2C	-lei-	2c	.	2A	.	1r	.
2BB-y	-ri-	2D	e-	[2G	.	2B-y	-i-	[2d	.	.	.
=23	=23	=23	=23	=23	=23	=23	=23	=23	=23	=23	=23
2.C	-e	2.E	-le-	4G]	.	1G	-son,	2d]	.	2r	.
.	.	.	.	4F	.	.	.	.	.	.	.
.	.	.	.	4E	.	.	.	2.c	.	2.g	Ky-
4BB-y	.	4F	.	8DL	.	.	.	.	.	.	.
.	.	.	.	8CJ	.	.	.	.	.	.	.
2GG	.	2G	.	1D	.	1r	.	.	.	.	.
.	.	.	.	.	.	.	.	4B-y	.	4f	.
2BB-y	e-	[2F	.	.	.	.	.	2B-y	-i-	2d	.
=24	=24	=24	=24	=24	=24	=24	=24	=24	=24	=24	=24
1AA	-lei-	4F]	.	2C	-son,	0r	.	1c	-son,	2.e	.
.	.	4E	.	.	.	.	.	.	.	.	.
.	.	2C	.	2.c	Ky-	.	.	.	.	.	.
.	.	.	.	.	.	.	.	.	.	4f	-ri-
1GG	.	2.D	.	.	.	.	.	2r	.	1g	-e
.	.	.	.	4B-y	.	.	.	.	.	.	.
.	.	.	.	2G	.	.	.	[2B-y	Ky-	.	.
.	.	4E	-i-	.	.	.	.	.	.	.	.
=25	=25	=25	=25	=25	=25	=25	=25	=25	=25	=25	=25
2FF	-son,	2F	-son,	2A	.	0r	.	4B-]	.	2c	e-
.	.	.	.	.	.	.	.	4A	.	.	.
2.BB-y	Ky-	4E	.	2B-y	.	.	.	2F	.	2d	.
.	.	4D	.	.	.	.	.	.	.	.	.
.	.	1C	.	2c	.	.	.	2G	.	2e	-le-
4AA	.	.	.	.	.	.	.	.	.	.	.
2FF	.	.	.	4B-y	.	.	.	2A	-ri-	[2f	.
.	.	.	.	4A	.	.	.	.	.	.	.
=26	=26	=26	=26	=26	=26	=26	=26	=26	=26	=26	=26
2GG	.	1r	.	2d	.	1r	.	2B-y	-e	4f]	.
.	.	.	.	.	.	.	.	.	.	4e	.
2AA	-ri-	.	.	2c	-ri-	.	.	4A	.	2c	.
.	.	.	.	.	.	.	.	4G	.	.	.
2.BB-y	-e	2r	.	4B-y	-e,	1B-y	Ky-	2.F	.	2.d	.
.	.	.	.	4c	.	.	.	.	.	.	.
.	.	[2F	Ky-	4d	.	.	.	.	.	.	.
8AAL	.	.	.	4B-y	.	.	.	4G	.	4e	-i-
8GGJ	.	.	.	.	.	.	.	.	.	.	.
=27	=27	=27	=27	=27	=27	=27	=27	=27	=27	=27	=27
2FF	.	4F]	.	1c	.	2A	.	4A	.	1f	-son,
.	.	4E	.	.	.	.	.	4B-y	.	.	.
2AA	e-	2C	.	.	.	2F	-ri-	4c	.	.	.
.	.	.	.	.	.	.	.	4A	.	.	.
2GG	-lei-	1D	.	1r	.	2G	-e	2B-y	.	2r	.
2BB-y	.	.	.	.	.	2F	e-	2d	e-	[2f	e-
=28	=28	=28	=28	=28	=28	=28	=28	=28	=28	=28	=28
1FF	.	2.F	.	1r	.	2.A	-le-	2c	-lei-	4f]	.
.	.	.	.	.	.	.	.	.	.	4e	.
.	.	.	.	.	.	.	.	2.f	.	2c	.
.	.	4E	-ri-	.	.	4G	-i-	.	.	.	.
[1BB-y	-son,	2D	-e	2.B-y	Ky-	1F	-son,	.	.	4d	-le-
.	.	.	.	.	.	.	.	4e	.	4B-y	.
.	.	2BB-y	e-	.	.	.	.	4d	.	[2b-y	.
.	.	.	.	4A	-ri-	.	.	4c	.	.	.
=29	=29	=29	=29	=29	=29	=29	=29	=29	=29	=29	=29
1BB-]	.	2.B-y	-lei-	2G	-e	2r	.	1d	-son,	4b-]	.
.	.	.	.	.	.	.	.	.	.	4a	.
.	.	.	.	2F	e-	2.B-y	Ky-	.	.	2f	.
.	.	4A	.	.	.	.	.	.	.	.	.
1r	.	2G	.	2E	-lei-	.	.	1r	.	2g	.
.	.	.	.	.	.	4A	.	.	.	.	.
.	.	2F	.	2D	.	2F	.	.	.	2a	-i-
=30	=30	=30	=30	=30	=30	=30	=30	=30	=30	=30	=30
1r	.	1E-X	.	4G	.	2.G	.	1.B-y	Ky-	2b-y	-son,
.	.	.	.	4A	.	.	.	.	.	.	.
.	.	.	.	4B-y	.	.	.	.	.	4a	.
.	.	.	.	4c	.	4A	-ri-	.	.	4g	.
2r	.	1D	-son,	2.d	.	4B-y	-e	.	.	1f	.
.	.	.	.	.	.	4c	.	.	.	.	.
[2BB-y	Ky-	.	.	.	.	[2d	.	2F	-ri-	.	.
.	.	.	.	4c	.	.	.	.	.	.	.
=31	=31	=31	=31	=31	=31	=31	=31	=31	=31	=31	=31
4BB-]	.	2r	.	2B-y	.	2d]	.	2G	-e	0r	.
4AA	.	.	.	.	.	.	.	.	.	.	.
2FF	.	2.F	Ky-	2A	.	2c	e-	2A	e-	.	.
2GG	.	.	.	2G	.	4B-y	-lei-	2B-y	-lei-	.	.
.	.	4E	.	.	.	4G	.	.	.	.	.
2AA	-ri-	2C	.	[2F	.	[2c	.	4A	.	.	.
.	.	.	.	.	.	.	.	4G	.	.	.
=32	=32	=32	=32	=32	=32	=32	=32	=32	=32	=32	=32
2.BB-y	-e	2.D	.	4F]	.	2c]	.	0F	-son,	1r	.
.	.	.	.	4E	.	.	.	.	.	.	.
.	.	.	.	4F	.	2B-y	.	.	.	.	.
8AAL	.	4E	-ri-	4G	.	.	.	.	.	.	.
8GGJ	.	.	.	.	.	.	.	.	.	.	.
2FF	.	2F	-e	4A	.	2A	.	.	.	2.c	Ky-
.	.	.	.	4B-y	.	.	.	.	.	.	.
[2F	e-	4E	.	[2c	.	4G	.	.	.	.	.
.	.	4D	.	.	.	4F	.	.	.	4B-y	.
=33	=33	=33	=33	=33	=33	=33	=33	=33	=33	=33	=33
2F]	.	1C	.	4c]	.	1G	.	2r	.	4c	.
.	.	.	.	4B-y	.	.	.	.	.	4d	.
2E	.	.	.	2G	.	.	.	1c	Ky-	2e	.
2F	-le-	2r	.	2A	.	1F	-son,	.	.	2c	.
2D	-i-	[2F	e-	2F	.	.	.	2B-y	.	2d	-ri-
=34	=34	=34	=34	=34	=34	=34	=34	=34	=34	=34	=34
1C	-son,	2F]	.	1G	.	2r	.	2.c	.	1e	-e
.	.	2E	.	.	.	1c	Ky-	.	.	.	.
.	.	.	.	.	.	.	.	4B-y	-ri-	.	.
1r	.	2F	-lei-	1F	-son,	.	.	2A	-e	2c	e-
.	.	2D	.	.	.	2B-y	-ri-	2F	e-	[2f	-le-
=35	=35	=35	=35	=35	=35	=35	=35	=35	=35	=35	=35
1r	.	1C	.	1r	.	2.c	-e	1G	-lei-	2f]	.
.	.	.	.	.	.	.	.	.	.	2e	.
.	.	.	.	.	.	4B-y	e-	.	.	.	.
2r	.	1D	-son,	2r	.	2A	-lei-	1F	-son,	2f	.
[2F	e-	.	.	[2A	Ky-	4F	.	.	.	2d	-i-
.	.	.	.	.	.	4G	.	.	.	.	.
=36	=36	=36	=36	=36	=36	=36	=36	=36	=36	=36	=36
2F]	.	1r	.	2A]	.	4A	.	0r	.	1.c	-son,
.	.	.	.	.	.	4B-y	.	.	.	.	.
2E	.	.	.	2G	-ri-	2.c	.	.	.	.	.
2F	-le-	2r	.	2A	-e	.	.	.	.	.	.
.	.	.	.	.	.	4A	.	.	.	.	.
2D	-i-	[2F	e-	2F	e-	2B-y	.	.	.	2d	e-
=37	=37	=37	=37	=37	=37	=37	=37	=37	=37	=37	=37
1C	-son,	2F]	.	1G	-le-	1c	.	2r	.	2.e	-le-
.	.	2E	.	.	.	.	.	2.c	e-	.	.
.	.	.	.	.	.	.	.	.	.	4d	.
1r	.	2F	-le-	2A	.	1F	-son,	.	.	2c	.
.	.	.	.	.	.	.	.	4A	.	.	.
.	.	2D	-i-	2F	.	.	.	2B-y	.	[2f	.
=38	=38	=38	=38	=38	=38	=38	=38	=38	=38	=38	=38
2r	.	1C	-son,	2.G	.	1r	.	2c	-le-	2f]	.
1C	e-	.	.	.	.	.	.	2G	.	2e	.
.	.	.	.	8FL	.	.	.	.	.	.	.
.	.	.	.	8EJ	.	.	.	.	.	.	.
.	.	1r	.	1D	.	2r	.	2A	.	2f	.
2BB-y	.	.	.	.	.	[2G	Ky-	2B-y	.	2d	-i-
=39	=39	=39	=39	=39	=39	=39	=39	=39	=39	=39	=39
2C	-le-	2r	.	2E	.	2G]	.	2G	.	1c	-son,
2AA	.	1F	e-	2C	-i-	2F	-ri-	2A	.	.	.
1GG	.	.	.	2D	-son,	2G	-e	2B-y	.	1r	.
.	.	2E	.	4C	.	2B-y	e-	2G	.	.	.
.	.	.	.	4BB-y	.	.	.	.	.	.	.
=40	=40	=40	=40	=40	=40	=40	=40	=40	=40	=40	=40
1FF	.	1F	-le-	1C	.	1A	-le-	4A	.	2r	.
.	.	.	.	.	.	.	.	4B-y	.	.	.
.	.	.	.	.	.	.	.	2.c	.	2a	e-
1GG	.	1D	-i-	2r	.	1G	.	.	.	4b-y	-le-
.	.	.	.	.	.	.	.	4A	.	4a	.
.	.	.	.	[2G	Ky-	.	.	2B-y	.	4g	.
.	.	.	.	.	.	.	.	.	.	4f	.
=41	=41	=41	=41	=41	=41	=41	=41	=41	=41	=41	=41
2.AA	.	1C	-son,	2G]	.	2.c	.	2c	.	4e	.
.	.	.	.	.	.	.	.	.	.	4c	.
.	.	.	.	2F	-rie	.	.	2A	.	1cc	.
4GG	.	.	.	.	.	4d	.	.	.	.	.
2C	.	1r	.	1G	e-	4e	.	2G	.	.	.
.	.	.	.	.	.	4c	.	.	.	.	.
2GG	-i-	.	.	.	.	2d	.	2B-y	.	2b-y	.
=42	=42	=42	=42	=42	=42	=42	=42	=42	=42	=42	=42
2AA	-son,	1C	e-	1E	-lei-	2c	.	2A	.	2.cc	.
1C	e-	.	.	.	.	2e	.	2G	.	.	.
.	.	.	.	.	.	.	.	.	.	4g	.
.	.	2F	-lei-	1D	-son,	1f	.	1d	.	2a	.
2BB-y	.	2D	.	.	.	.	.	.	.	2b-y	.
=43	=43	=43	=43	=43	=43	=43	=43	=43	=43	=43	=43
2C	-le-	2E	.	1r	.	2e	.	1c	.	2g	.
4BB-y	.	2.F	.	.	.	4d	.	.	.	2a	.
4AA	.	.	.	.	.	4c	.	.	.	.	.
2GG	.	.	.	1G	e-	2d	.	2B-y	.	2b-y	.
.	.	4D	.	.	.	.	.	.	.	.	.
2C	-i-	2E	.	.	.	2c	-i-	4A	.	[2cc	.
.	.	.	.	.	.	.	.	4G	.	.	.
=44	=44	=44	=44	=44	=44	=44	=44	=44	=44	=44	=44
1FF	-son,	1F	.	2A	-lei-	1c	-son,	2F	.	4cc]	.
.	.	.	.	.	.	.	.	.	.	4b-y	.
.	.	.	.	4G	.	.	.	2.c	.	4a	.
.	.	.	.	4F	.	.	.	.	.	4g	.
2r	.	1D	.	2A	.	1r	.	.	.	2f	.
.	.	.	.	.	.	.	.	4A	.	.	.
2GG	e-	.	.	2G	.	.	.	2B-y	.	[2g	.
=45	=45	=45	=45	=45	=45	=45	=45	=45	=45	=45	=45
2AA	-lei-	1.C	.	2E	.	2r	.	2c	.	2g]	.
2FF	.	.	.	2F	.	2.c	e-	2A	-i-	1f	.
1C	.	.	.	1G	.	.	.	2G	-son.	.	.
.	.	.	.	.	.	4B-y	.	.	.	.	.
.	.	2E	.	.	.	2G	.	[2c	.	2e	-i-
=46	=46	=46	=46	=46	=46	=46	=46	=46	=46	=46	=46
[0FFl	-son.	2D	.	[0Fl	-son.	2A	-le-	4c]	.	[0fl	-son.
.	.	.	.	.	.	.	.	4B-y	.	.	.
.	.	2C	.	.	.	2c	.	1A	.	.	.
.	.	1D	.	.	.	2.A	.	.	.	.	.
.	.	.	.	.	.	.	.	4G	.	.	.
.	.	.	.	.	.	4B-y	-i-	4F	.	.	.
=	=	=	=	=	=	=	=	=	=	=	=
00FF]	.	00C	-son.	00F]	.	00c	-son.	00A	.	00f]	.
=||	=||	=||	=||	=||	=||	=||	=||	=||	=||	=||	=||
*M2/1	*	*M2/1	*	*M2/1	*	*M2/1	*	*M2/1	*	*M2/1	*
*met(C|)	*	*met(C|)	*	*met(C|)	*	*met(C|)	*	*met(C|)	*	*met(C|)	*
!!section: Christe
!!!OMD: Christe
0r	.	0C	Chri-	1.c	Chri-	0r	.	0r	.	0r	.
.	.	.	.	2B-y	.	.	.	.	.	.	.
=47	=47	=47	=47	=47	=47	=47	=47	=47	=47	=47	=47
0r	.	1C	-ste	2A	.	0r	.	1.c	Chri-	0r	.
.	.	.	.	2G	.	.	.	.	.	.	.
.	.	1D	e-	[1F	-ste	.	.	.	.	.	.
.	.	.	.	.	.	.	.	2B-y	.	.	.
=48	=48	=48	=48	=48	=48	=48	=48	=48	=48	=48	=48
1r	.	0C	-lei-	2F]	.	1.c	Chri-	2A	.	1r	.
.	.	.	.	2E	e-	.	.	2G	.	.	.
[1FF	Chri-	.	.	2.A	-le-	.	.	1F	-ste,	[1cc	Chri-
.	.	.	.	.	.	2B-y	.	.	.	.	.
.	.	.	.	4B-y	-i-	.	.	.	.	.	.
=49	=49	=49	=49	=49	=49	=49	=49	=49	=49	=49	=49
0FF]	.	1.F	.	1c	-son,	2A	.	0r	.	2cc]	.
.	.	.	.	.	.	2G	.	.	.	2b-y	.
.	.	.	.	1r	.	2F	-ste	.	.	2a	.
.	.	2E	.	.	.	[2B-y	e-	.	.	2g	.
=50	=50	=50	=50	=50	=50	=50	=50	=50	=50	=50	=50
1FF	-ste	2D	.	1.F	Chri-	2B-]	.	0r	.	2f	.
.	.	2C	.	.	.	2A	.	.	.	2a	.
1GG	e-	1BB-y	.	.	.	1B-y	-lei-	.	.	1g	-ste,
.	.	.	.	2E	.	.	.	.	.	.	.
=51	=51	=51	=51	=51	=51	=51	=51	=51	=51	=51	=51
0FF	-le-	2C	-son,	4F	-ste	1.A	.	1c	Chri-	2.cc	Chri-
.	.	.	.	4G	.	.	.	.	.	.	.
.	.	1F	Chri-	4A	.	.	.	.	.	.	.
.	.	.	.	4B-y	.	.	.	.	.	4b-y	.
.	.	.	.	1c	.	.	.	[1f	.	2a	.
.	.	2E	.	.	.	4B-y	.	.	.	2g	.
.	.	.	.	.	.	4c	.	.	.	.	.
=52	=52	=52	=52	=52	=52	=52	=52	=52	=52	=52	=52
1.BB-y	.	2D	-ste	1F	e-	0d	.	2f]	.	0f	-ste
.	.	2C	e-	.	.	.	.	2e	.	.	.
.	.	2BB-y	-lei-	[1B-y	-le-	.	.	2d	-ste	.	.
2AA	.	2C	.	.	.	.	.	2c	e-	.	.
=53	=53	=53	=53	=53	=53	=53	=53	=53	=53	=53	=53
2GG	.	1D	.	2B-]	.	0G	-son,	0B-y	-lei-	0g	e-
2FF	.	.	.	2A	.	.	.	.	.	.	.
1EE	.	1E	.	1G	.	.	.	.	.	.	.
=54	=54	=54	=54	=54	=54	=54	=54	=54	=54	=54	=54
1FF	.	1C	-son,	2.F	.	2c	Chri-	1A	-son,	1a	-le-
.	.	.	.	.	.	4B-y	.	.	.	.	.
.	.	.	.	4E	.	4A	.	.	.	.	.
2GG	.	1r	.	2D	.	2B-y	.	2r	.	2g	.
2AA	-i-	.	.	2C	-i-	2c	.	[2A	e-	2e	-i-
=55	=55	=55	=55	=55	=55	=55	=55	=55	=55	=55	=55
1FF	-son,	2r	.	1F	-son,	1A	-ste,	4A]	.	2f	-son,
.	.	.	.	.	.	.	.	4B-y	.	.	.
.	.	1F	Chri-	.	.	.	.	4c	.	1a	Chri-
.	.	.	.	.	.	.	.	4A	.	.	.
1r	.	.	.	1r	.	2r	.	2c	.	.	.
.	.	4E	.	.	.	2A	Chri-	[2d	-lei-	4g	.
.	.	4D	.	.	.	.	.	.	.	4f	.
=56	=56	=56	=56	=56	=56	=56	=56	=56	=56	=56	=56
2r	.	2E	.	2r	.	2G	.	4d]	.	2g	.
.	.	.	.	.	.	.	.	4c	.	.	.
1F	Chri-	2F	.	1A	Chri-	2F	-ste	2.c	.	2a	.
.	.	1D	-ste,	.	.	2A	e-	.	.	1f	.
.	.	.	.	.	.	.	.	4A	.	.	.
4E	.	.	.	4G	.	[2d	-lei-	2B-y	.	.	.
4D	.	.	.	4F	.	.	.	.	.	.	.
=57	=57	=57	=57	=57	=57	=57	=57	=57	=57	=57	=57
2E	.	2r	.	2G	.	4d]	.	1c	.	2e	-ste
.	.	.	.	.	.	4c	.	.	.	.	.
2F	.	1F	Chri-	1A	.	2.c	.	.	.	2c	e-
1D	-ste	.	.	.	.	.	.	1F	-son,	1f	-le-
.	.	.	.	.	.	4A	.	.	.	.	.
.	.	4E	.	4G	.	2B-y	.	.	.	.	.
.	.	4D	.	4F	.	.	.	.	.	.	.
=58	=58	=58	=58	=58	=58	=58	=58	=58	=58	=58	=58
2C	e-	2E	.	2c	.	1G	-son,	2r	.	2e	.
1E-X	-lei-	2C	.	4G	-ste	.	.	2c	e-	1g	.
.	.	.	.	4A	.	.	.	.	.	.	.
.	.	1G	-ste	2B-y	.	2r	.	1e	-le-	.	.
4D	.	.	.	[2c	e-	2g	e-	.	.	4f	.
4C	.	.	.	.	.	.	.	.	.	4e	.
=59	=59	=59	=59	=59	=59	=59	=59	=59	=59	=59	=59
2D	.	2r	.	4c]	.	2f	-le-	2d	.	2a	.
.	.	.	.	4B-y	.	.	.	.	.	.	.
2E	.	1G	e-	1B-y	.	1e	.	2B-y	-i-	2g	.
1C	.	.	.	.	.	.	.	1c	-son,	1e	.
.	.	2E	.	2A	.	2c	.	.	.	.	.
=60	=60	=60	=60	=60	=60	=60	=60	=60	=60	=60	=60
2BB-y	.	1F	-lei-	2B-y	-le-	1.d	.	2r	.	2d	.
1D	.	.	.	4F	.	.	.	2A	e-	1f	.
.	.	.	.	4G	.	.	.	.	.	.	.
.	.	1D	-son,	4A	.	.	.	1d	-le-	.	.
.	.	.	.	4F	.	.	.	.	.	.	.
4C	.	.	.	[2B-y	.	2f	.	.	.	4e	.
4BB-y	.	.	.	.	.	.	.	.	.	4d	.
=61	=61	=61	=61	=61	=61	=61	=61	=61	=61	=61	=61
2C	.	2r	.	4B-]	.	2e	.	2c	.	2g	.
.	.	.	.	4A	.	.	.	.	.	.	.
2D	.	1F	e-	1A	.	1d	.	2A	-i-	2f	.
1BB-y	.	.	.	.	.	.	.	1B-y	-son,	1d	.
.	.	2D	.	2G	.	2B-y	.	.	.	.	.
=62	=62	=62	=62	=62	=62	=62	=62	=62	=62	=62	=62
2AA	.	1E	-lei-	2A	.	1.c	.	2r	.	2c	.
1C	.	.	.	4E	.	.	.	2G	e-	1e	.
.	.	.	.	4F	.	.	.	.	.	.	.
.	.	1C	-son,	4G	.	.	.	1c	-le-	.	.
.	.	.	.	4E	.	.	.	.	.	.	.
4BB-y	.	.	.	[2A	.	2e	.	.	.	4d	.
4AA	.	.	.	.	.	.	.	.	.	4c	.
=63	=63	=63	=63	=63	=63	=63	=63	=63	=63	=63	=63
2BB-y	.	2r	.	4A]	.	2d	.	2B-y	.	2f	.
.	.	.	.	4G	.	.	.	.	.	.	.
2C	.	1E	e-	1G	.	1c	.	2G	-i-	2e	.
1AA	.	.	.	.	.	.	.	1A	-son,	1c	.
.	.	2C	.	2F	.	2A	.	.	.	.	.
=64	=64	=64	=64	=64	=64	=64	=64	=64	=64	=64	=64
2GG	.	1D	-lei-	2G	.	1.B-y	.	2r	.	2B-y	.
1BB-y	.	.	.	4D	.	.	.	2F	e-	1d	.
.	.	.	.	4E	.	.	.	.	.	.	.
.	.	1BB-y	-son,	4F	.	.	.	1B-y	-le-	.	.
.	.	.	.	4D	.	.	.	.	.	.	.
4AA	.	.	.	[2G	.	2d	.	.	.	4c	.
4GG	.	.	.	.	.	.	.	.	.	4B-y	.
=65	=65	=65	=65	=65	=65	=65	=65	=65	=65	=65	=65
2AA	.	2r	.	4G]	.	2c	.	2A	.	2e-i	.
.	.	.	.	4F	.	.	.	.	.	.	.
2BB-y	.	1D	e-	1F	.	1B-y	.	2F	-i-	2d	.
1GG	.	.	.	.	.	.	.	1G	-son,	2B-y	.
.	.	2BB-y	-lei-	2E	-i-	2G	.	.	.	2b-y	.
=66	=66	=66	=66	=66	=66	=66	=66	=66	=66	=66	=66
1FF	-son,	0C	-son,	1.F	-son,	2.A	.	0c	e-	4a	.
.	.	.	.	.	.	.	.	.	.	4g	.
.	.	.	.	.	.	.	.	.	.	1a	.
.	.	.	.	.	.	4B-y	.	.	.	.	.
1r	.	.	.	.	.	2c	.	.	.	.	.
.	.	.	.	2E	e-	2G	.	.	.	2g	-i-
=67	=67	=67	=67	=67	=67	=67	=67	=67	=67	=67	=67
1r	.	0r	.	2F	-lei-	2A	.	1c	-le-	1f	-son,
.	.	.	.	2A	.	1c	.	.	.	.	.
1GG	Chri-	.	.	1G	.	.	.	1d	-i-	1g	.
.	.	.	.	.	.	2B-y	-i-	.	.	.	.
=68	=68	=68	=68	=68	=68	=68	=68	=68	=68	=68	=68
2AA	-ste	2.C	Chri-	2C	.	1c	-son,	1c	-son,	1e	.
2C	e-	.	.	1G	.	.	.	.	.	.	.
.	.	4E	.	.	.	.	.	.	.	.	.
2BB-y	-lei-	2D	.	.	.	1r	.	2r	.	1r	.
2AA	.	2C	.	2F	.	.	.	[2c	Chri-	.	.
=69	=69	=69	=69	=69	=69	=69	=69	=69	=69	=69	=69
1GG	.	2.D	-ste,	1G	.	1r	.	2c]	.	1g	Chri-
.	.	.	.	.	.	.	.	2B-y	.	.	.
.	.	4E	.	.	.	.	.	.	.	.	.
1FF	-son,	1F	.	1C	-son,	1c	Chri-	1A	.	2a	-ste
.	.	.	.	.	.	.	.	.	.	2cc	e-
=70	=70	=70	=70	=70	=70	=70	=70	=70	=70	=70	=70
0r	.	1r	.	0r	.	2d	-ste	2G	-ste	2b-y	-le-
.	.	.	.	.	.	1f	e-	2F	e-	2.a	.
.	.	1C	Chri-	.	.	.	.	1c	-lei-	.	.
.	.	.	.	.	.	.	.	.	.	4g	.
.	.	.	.	.	.	2e	.	.	.	[2g	.
=71	=71	=71	=71	=71	=71	=71	=71	=71	=71	=71	=71
1r	.	2D	-ste	1r	.	2d	-le-	2B-y	.	2g]	.
.	.	2F	e-	.	.	1c	.	2A	.	2f	-i-
1GG	Chri-	2E	-le-	1G	Chri-	.	.	2G	.	1g	-son,
.	.	2D	-i-	.	.	2Bni	-i-	2B-y	.	.	.
=72	=72	=72	=72	=72	=72	=72	=72	=72	=72	=72	=72
2AA	-ste	1C	-son,	2F	-ste	1c	-son,	2A	.	2r	.
1C	e-	.	.	1E	e-	.	.	2.G	.	2c	e-
.	.	1r	.	.	.	2r	.	.	.	2.d	-le-
.	.	.	.	.	.	.	.	4A	.	.	.
2BB-y	.	.	.	[2D	-le-	2G	Chri-	2B-y	.	.	.
.	.	.	.	.	.	.	.	.	.	4e	.
=73	=73	=73	=73	=73	=73	=73	=73	=73	=73	=73	=73
2.AA	-lei-	0r	.	2D]	.	2A	-ste	1c	-son,	2f	.
.	.	.	.	2C	-i-	1c	e-	.	.	2e	.
4BB-y	.	.	.	.	.	.	.	.	.	.	.
1GG	.	.	.	2.D	-son,	.	.	2r	.	1g	.
.	.	.	.	.	.	2B-	.	2G	Chri-	.	.
.	.	.	.	4E	.	.	.	.	.	.	.
=74	=74	=74	=74	=74	=74	=74	=74	=74	=74	=74	=74
1FF	-son,	1C	Chri-	1F	.	2.A	-le-	2A	-ste	2c	.
.	.	.	.	.	.	.	.	2.c	e-	1f	.
.	.	.	.	.	.	4G	-i-	.	.	.	.
1r	.	1D	.	2r	.	1F	-son,	.	.	.	.
.	.	.	.	.	.	.	.	4A	.	.	.
.	.	.	.	2F	Chri-	.	.	2B-y	.	2d	.
=75	=75	=75	=75	=75	=75	=75	=75	=75	=75	=75	=75
0r	.	2C	-ste	2E	-ste	1c	Chri-	2G	-lei-	1e	.
.	.	2AA	e-	2C	e-	.	.	2.A	.	.	.
.	.	2BB-y	-le-	2D	-le-	2B-y	-ste	.	.	2d	-i-
.	.	.	.	.	.	.	.	4G	.	.	.
.	.	2C	-i-	2E	-i-	2G	e-	[2G	.	2c	-son,
=76	=76	=76	=76	=76	=76	=76	=76	=76	=76	=76	=76
0r	.	1AA	-son,	2C	-son,	1A	-lei-	2G]	.	1cc	Chri-
.	.	.	.	2c	Chri-	.	.	2F	.	.	.
.	.	1r	.	1d	.	1G	-son,	1B-y	.	2b-y	-ste
.	.	.	.	.	.	.	.	.	.	2g	e-
=77	=77	=77	=77	=77	=77	=77	=77	=77	=77	=77	=77
1F	Chri-	0r	.	2c	-ste	2r	.	1A	-son,	1a	-lei-
.	.	.	.	2A	e-	2.f	e-	.	.	.	.
1G	.	.	.	2.B-y	-lei-	.	.	1r	.	1g	-son,
.	.	.	.	.	.	4d	.	.	.	.	.
.	.	.	.	.	.	2e	.	.	.	.	.
.	.	.	.	4c	.	.	.	.	.	.	.
=78	=78	=78	=78	=78	=78	=78	=78	=78	=78	=78	=78
2F	-ste	0r	.	1A	.	2c	-le-	1f	Chri-	2r	.
2D	e-	.	.	.	.	2.d	.	.	.	2f	Chri-
2E	-lei-	.	.	2G	-son,	.	.	2e	-ste	2g	.
.	.	.	.	.	.	4c	.	.	.	.	.
2F	.	.	.	[2A	Chri-	[2c	.	2c	e-	[2f	-ste
=79	=79	=79	=79	=79	=79	=79	=79	=79	=79	=79	=79
1D	.	1F	Chri-	4A]	.	2c]	.	1d	-lei-	2f]	.
.	.	.	.	4G	.	.	.	.	.	.	.
.	.	.	.	1F	.	2B-y	-i-	.	.	2d	e-
1C	-son,	1G	.	.	.	1c	-son,	2G	.	1e	-le-
.	.	.	.	2E	.	.	.	[2c	.	.	.
=80	=80	=80	=80	=80	=80	=80	=80	=80	=80	=80	=80
1D	Chri-	2F	-ste	2F	-ste	1r	.	4c]	.	2d	.
.	.	.	.	.	.	.	.	4A	.	.	.
.	.	2D	e-	2F	e-	.	.	2B-y	.	2f	.
2C	-ste	2E	-lei-	2G	-lei-	1c	Chri-	2G	.	2e	.
2AA	e-	2F	.	[2F	.	.	.	[2A	.	4d	.
.	.	.	.	.	.	.	.	.	.	4c	.
=81	=81	=81	=81	=81	=81	=81	=81	=81	=81	=81	=81
2.BB-y	-le-	1D	.	2F]	.	2d	-ste	4A]	.	2f	.
.	.	.	.	.	.	.	.	4F	.	.	.
.	.	.	.	4E	.	2B-y	e-	2G	.	2g	-i-
4C	.	.	.	4D	.	.	.	.	.	.	.
2AA	.	2C	-son,	2E	.	2c	-lei-	1A	-son,	2c	-son,
2FF	.	[2F	Chri-	2F	.	2A	.	.	.	2cc	Chri-
=82	=82	=82	=82	=82	=82	=82	=82	=82	=82	=82	=82
2BB-y	.	2F]	.	1D	.	1B-y	.	1r	.	2dd	-ste
2GG	.	2G	.	.	.	.	.	.	.	2b-y	e-
2AA	.	2E	-ste	2C	-son,	1A	-son,	2r	.	4cc	-le-
.	.	.	.	.	.	.	.	.	.	4b-y	.
2FF	.	2F	e-	2c	Chri-	.	.	[2f	Chri-	4a	.
.	.	.	.	.	.	.	.	.	.	4g	.
=83	=83	=83	=83	=83	=83	=83	=83	=83	=83	=83	=83
2BB-y	.	1D	-lei-	2d	-ste	1r	.	2f]	.	4f	.
.	.	.	.	.	.	.	.	.	.	4B-y	.
2GG	.	.	.	2B-y	e-	.	.	2g	-ste	2.b-y	.
2AA	.	1C	-son,	2c	-lei-	1c	Chri-	2e	e-	.	.
.	.	.	.	.	.	.	.	.	.	4a	.
2FF	.	.	.	2A	.	.	.	[2f	-lei-	[2a	.
=84	=84	=84	=84	=84	=84	=84	=84	=84	=84	=84	=84
2.BB-y	.	1r	.	1B-y	.	2d	-ste	2f]	.	2a]	.
.	.	.	.	.	.	2B-y	e-	4e	.	2g	.
4AA	-i-	.	.	.	.	.	.	4d	.	.	.
1FF	-son,	1F	Chri-	1A	-son,	2c	-le-	2.f	.	4a	.
.	.	.	.	.	.	.	.	.	.	4f	.
.	.	.	.	.	.	2A	.	.	.	[2a	.
.	.	.	.	.	.	.	.	4e	.	.	.
=85	=85	=85	=85	=85	=85	=85	=85	=85	=85	=85	=85
0r	.	2G	-ste	1r	.	1B-y	.	2d	.	2a]	.
.	.	2E	e-	.	.	.	.	2e	.	2g	-i-
.	.	2F	-lei-	2r	.	2A	.	2c	.	[1a	-son,
.	.	2D	.	[2A	e-	4G	.	[2d	.	.	.
.	.	.	.	.	.	4F	.	.	.	.	.
=86	=86	=86	=86	=86	=86	=86	=86	=86	=86	=86	=86
1AA	e-	1E	.	4A]	.	1.A	.	2d]	.	0a]	.
.	.	.	.	4G	.	.	.	.	.	.	.
.	.	.	.	2E	.	.	.	2c#i	.	.	.
1D	-le-	1D	-son,	1F	-lei-	.	.	4d	.	.	.
.	.	.	.	.	.	.	.	4e	.	.	.
.	.	.	.	.	.	4G	.	4f	.	.	.
.	.	.	.	.	.	4F	.	4d	.	.	.
=87	=87	=87	=87	=87	=87	=87	=87	=87	=87	=87	=87
1C	-i-	2r	.	1E	.	2G	.	1e	.	2r	.
.	.	2.AA	Chri-	.	.	2.A	.	.	.	2.c	Chri-
1AA	-son,	.	.	1A	-son,	.	.	1c	-son,	.	.
.	.	4BB-y	.	.	.	4G	.	.	.	4d	.
.	.	4C	.	.	.	2E	.	.	.	4e	.
.	.	4AA	.	.	.	.	.	.	.	4c	.
=88	=88	=88	=88	=88	=88	=88	=88	=88	=88	=88	=88
2r	.	2D	.	2r	.	2F	.	2r	.	2d	.
2.AA	e-	2C	.	2.A	e-	2E	-i-	2.c	Chri-	2e	.
.	.	1AA	-ste	.	.	[1A	-son,	.	.	1c	-ste
4BB-y	.	.	.	4G	.	.	.	4d	.	.	.
4C	.	.	.	2E	.	.	.	4e	.	.	.
4AA	.	.	.	.	.	.	.	4c	.	.	.
=89	=89	=89	=89	=89	=89	=89	=89	=89	=89	=89	=89
2D	.	0r	.	2F	-lei-	1A]	.	2d	.	2r	.
2C	.	.	.	2E	.	.	.	2e	.	2.c	e-
1AA	-lei-	.	.	1A	.	2r	.	[1c	-ste	.	.
.	.	.	.	.	.	.	.	.	.	4d	.
.	.	.	.	.	.	[2c	e-	.	.	4e	.
.	.	.	.	.	.	.	.	.	.	4c	.
=90	=90	=90	=90	=90	=90	=90	=90	=90	=90	=90	=90
[0AAl	-son.	2r	.	[0Al	-son.	4c]	.	1c]	.	2f	.
.	.	.	.	.	.	4d	.	.	.	.	.
.	.	2.C	e-	.	.	4e	.	.	.	2e	.
.	.	.	.	.	.	4c	.	.	.	.	.
.	.	.	.	.	.	2f	.	2r	.	1c	-lei-
.	.	4D	.	.	.	.	.	.	.	.	.
.	.	4E	.	.	.	2e	-lei-	[2c	e-	.	.
.	.	4C	.	.	.	.	.	.	.	.	.
=91	=91	=91	=91	=91	=91	=91	=91	=91	=91	=91	=91
0AA_	.	2F	.	0A_	.	[0cl	-son.	4c]	.	[0ccl	-son.
.	.	.	.	.	.	.	.	4d	.	.	.
.	.	2E	.	.	.	.	.	4e	.	.	.
.	.	.	.	.	.	.	.	4c	.	.	.
.	.	2.C	-le-	.	.	.	.	2f	.	.	.
.	.	.	.	.	.	.	.	2e	.	.	.
.	.	4D	-i-	.	.	.	.	.	.	.	.
=92	=92	=92	=92	=92	=92	=92	=92	=92	=92	=92	=92
0AA_	.	[0El	-son.	0A_	.	0c_	.	2.c	-le-	0cc_	.
.	.	.	.	.	.	.	.	4d	-i-	.	.
.	.	.	.	.	.	.	.	[1el	-son.	.	.
=	=	=	=	=	=	=	=	=	=	=	=
00AA]	.	00E]	.	00A]	.	00c]	.	00e]	.	00cc]	.
=||	=||	=||	=||	=||	=||	=||	=||	=||	=||	=||	=||
*M2/1	*	*M2/1	*	*M2/1	*	*M2/1	*	*M2/1	*	*M2/1	*
*met(C|)	*	*met(C|)	*	*met(C|)	*	*met(C|)	*	*met(C|)	*	*met(C|)	*
!!section: Kyrie II
!!!OMD: Kyrie II
0r	.	0r	.	1r	.	0r	.	0r	.	1.f	Ky-
.	.	.	.	[1F	Ky-	.	.	.	.	.	.
.	.	.	.	.	.	.	.	.	.	2f	-ri-
=93	=93	=93	=93	=93	=93	=93	=93	=93	=93	=93	=93
1r	.	0r	.	2F]	.	0r	.	1.c	Ky-	2.c	-e
.	.	.	.	2F	-ri-	.	.	.	.	.	.
.	.	.	.	.	.	.	.	.	.	4d	e-
[1C	Ky-	.	.	2.C	-e	.	.	.	.	4e	-le-
.	.	.	.	.	.	.	.	.	.	4f	.
.	.	.	.	.	.	.	.	2c	-ri-	[2g	.
.	.	.	.	4D	e-	.	.	.	.	.	.
=94	=94	=94	=94	=94	=94	=94	=94	=94	=94	=94	=94
2C]	.	0r	.	4E	-le-	1r	.	2.G	-e	4g]	.
.	.	.	.	4F	.	.	.	.	.	4f	.
2C	-ri-	.	.	1G	.	.	.	.	.	4e	.
.	.	.	.	.	.	.	.	4A	e-	8dL	.
.	.	.	.	.	.	.	.	.	.	8cJ	.
1GG	-e	.	.	.	.	[1B-y	Ky-	4B-y	-le-	2d	.
.	.	.	.	.	.	.	.	4c	.	.	.
.	.	.	.	4F	.	.	.	[2d	.	2g	-i-
.	.	.	.	4E	.	.	.	.	.	.	.
=95	=95	=95	=95	=95	=95	=95	=95	=95	=95	=95	=95
2.BB-y	e-	1.F	Ky-	2.D	.	2B-]	.	2d]	.	0f	-son,
.	.	.	.	.	.	2B-y	-ri-	4c	.	.	.
4C	.	.	.	4E	.	.	.	4B-y	.	.	.
2D	-lei-	.	.	4F	.	2.F	-e	2.A	.	.	.
.	.	.	.	4G	.	.	.	.	.	.	.
4C	.	2F	-ri-	[2A	.	.	.	.	.	.	.
4BB-y	.	.	.	.	.	4G	e-	4B-y	-i-	.	.
=96	=96	=96	=96	=96	=96	=96	=96	=96	=96	=96	=96
2.AA	.	2.C	-e	2A]	.	4A	-le-	2c	-son,	0r	.
.	.	.	.	.	.	4B-y	.	.	.	.	.
.	.	.	.	4G	.	2.c	.	4B-y	.	.	.
4BB-y	.	4D	e-	4F	.	.	.	4A	.	.	.
1C	.	1E	-lei-	2E	.	.	.	1G	.	.	.
.	.	.	.	.	.	4B-y	.	.	.	.	.
.	.	.	.	[2G	.	4G	.	.	.	.	.
.	.	.	.	.	.	4A	.	.	.	.	.
=97	=97	=97	=97	=97	=97	=97	=97	=97	=97	=97	=97
2GG	.	2D	.	2G]	.	2B-y	.	0r	.	1r	.
2AA	.	2C	.	2F	-i-	1c	.	.	.	.	.
1GG	.	1D	.	[1G	-son,	.	.	.	.	[1g	Ky-
.	.	.	.	.	.	2Bni	.	.	.	.	.
=98	=98	=98	=98	=98	=98	=98	=98	=98	=98	=98	=98
0C	-son,	0E	-son,	1G]	.	1c	.	2r	.	2g]	.
.	.	.	.	.	.	.	.	1c	Ky-	2g	-ri-
.	.	.	.	1r	.	2.G	.	.	.	2.e	-e
.	.	.	.	.	.	.	.	2c	-ri-	.	.
.	.	.	.	.	.	4A	.	.	.	4f	e-
=99	=99	=99	=99	=99	=99	=99	=99	=99	=99	=99	=99
1r	.	0r	.	1.B-y	Ky-	4B-y	.	2.G	-e	2g	-le-
.	.	.	.	.	.	4c	.	.	.	.	.
.	.	.	.	.	.	1d	.	.	.	4f	.
.	.	.	.	.	.	.	.	4A	e-	4e	.
[1BB-y	Ky-	.	.	.	.	.	.	4B-y	-le-	2.d	.
.	.	.	.	.	.	.	.	4c	.	.	.
.	.	.	.	2B-y	-ri-	4c	.	[2d	.	.	.
.	.	.	.	.	.	4B-y	.	.	.	4e	.
=100	=100	=100	=100	=100	=100	=100	=100	=100	=100	=100	=100
2BB-]	.	1.F	Ky-	2.F	-e	1d	.	2d]	.	1.f	.
2BB-y	-ri-	.	.	.	.	.	.	4c	.	.	.
.	.	.	.	4G	e-	.	.	4B-y	.	.	.
2.FF	-e	.	.	4A	-le-	2.c	.	2.A	.	.	.
.	.	.	.	4B-y	.	.	.	.	.	.	.
.	.	2F	-ri-	[2c	.	.	.	.	.	[2c	.
4GG	e-	.	.	.	.	4B-y	.	4B-y	.	.	.
=101	=101	=101	=101	=101	=101	=101	=101	=101	=101	=101	=101
4AA	-le-	2.C	-e	4c]	.	2A	.	2.c	.	4c]	.
4BB-y	.	.	.	4B-y	.	.	.	.	.	4d	.
2.C	.	.	.	2.G	.	2G	.	.	.	4e	.
.	.	4D	e-	.	.	.	.	4B-y	-i-	4f	.
.	.	2E	-le-	.	.	2c	.	1G	-son,	2.g	.
4BB-y	.	.	.	4A	.	.	.	.	.	.	.
4GG	.	[2D	.	2B-y	.	2d	.	.	.	.	.
4AA	.	.	.	.	.	.	.	.	.	4f	.
=102	=102	=102	=102	=102	=102	=102	=102	=102	=102	=102	=102
2BB-y	.	2D]	.	2F	.	2B-y	.	1r	.	4d	.
.	.	.	.	.	.	.	.	.	.	4e	.
2FF	.	2C	.	2A	.	4c	.	.	.	1f	.
.	.	.	.	.	.	8B-yL	.	.	.	.	.
.	.	.	.	.	.	8AJ	.	.	.	.	.
2BB-y	.	2D	.	1G	.	2B-y	.	2r	.	.	.
2C	.	2E	.	.	.	2G	.	[2c	Ky-	2e	-i-
=103	=103	=103	=103	=103	=103	=103	=103	=103	=103	=103	=103
1FF	.	2C	.	1A	.	1c	.	2c]	.	1f	-son,
.	.	2F	.	.	.	.	.	2A	-ri-	.	.
2GG	.	2D	.	2G	.	2B-y	.	2B-y	-e	1r	.
2AA	.	2C	.	4F	.	[2A	.	2c	e-	.	.
.	.	.	.	4E	.	.	.	.	.	.	.
=104	=104	=104	=104	=104	=104	=104	=104	=104	=104	=104	=104
1BB-y	.	2F	.	1D	.	2A]	.	2d	-le-	0r	.
.	.	4E	.	.	.	2G	-i-	2B-y	.	.	.
.	.	4D	.	.	.	.	.	.	.	.	.
2AA	.	2C	.	2E	.	2A	-son,	2c	.	.	.
[2BB-y	.	[2D	.	2D	.	2F	e-	4B-y	.	.	.
.	.	.	.	.	.	.	.	4A	.	.	.
=105	=105	=105	=105	=105	=105	=105	=105	=105	=105	=105	=105
2BB-]	.	2D]	.	2.E	.	2G	-lei-	4G	.	0r	.
.	.	.	.	.	.	.	.	4F	.	.	.
2AA	.	2C	.	.	.	2A	.	1F	.	.	.
.	.	.	.	4F	.	.	.	.	.	.	.
1GG	.	2D	.	1G	-son,	1B-y	.	.	.	.	.
.	.	4BB-y	.	.	.	.	.	2E	-i-	.	.
.	.	4C	.	.	.	.	.	.	.	.	.
=106	=106	=106	=106	=106	=106	=106	=106	=106	=106	=106	=106
1FF	-son,	4D	.	2r	.	2A	-son,	1F	-son.	2r	.
.	.	4E	.	.	.	.	.	.	.	.	.
.	.	2F	.	2A	e-	2c	e-	.	.	2.f	Ky-
1r	.	2D	.	2B-y	-lei-	2d	-lei-	1r	.	.	.
.	.	.	.	.	.	.	.	.	.	4g	.
.	.	2C	.	2c	.	2e	.	.	.	4a	.
.	.	.	.	.	.	.	.	.	.	8gL	.
.	.	.	.	.	.	.	.	.	.	8aJ	.
=107	=107	=107	=107	=107	=107	=107	=107	=107	=107	=107	=107
0r	.	1BB-y	-son,	2.d	.	1f	.	0r	.	1b-y	.
.	.	.	.	8cL	.	.	.	.	.	.	.
.	.	.	.	8B-yJ	.	.	.	.	.	.	.
.	.	2r	.	1c	.	2e	.	.	.	2.a	.
.	.	[2F	Ky-	.	.	2f	.	.	.	.	.
.	.	.	.	.	.	.	.	.	.	4b-y	-ri-
=108	=108	=108	=108	=108	=108	=108	=108	=108	=108	=108	=108
0r	.	4F]	.	1A	-son,	2c	.	1c	Ky-	2cc	-e
.	.	4G	.	.	.	.	.	.	.	.	.
.	.	4A	.	.	.	1f	.	.	.	1a	e-
.	.	4F	.	.	.	.	.	.	.	.	.
.	.	1B-y	.	1r	.	.	.	2.d	.	.	.
.	.	.	.	.	.	4e	.	.	.	2g	.
.	.	.	.	.	.	4d	.	4e	.	.	.
=109	=109	=109	=109	=109	=109	=109	=109	=109	=109	=109	=109
0r	.	2A	-rie	1F	e-	2c	.	1f	.	2a	-le-
.	.	2D	e-	.	.	2d	.	.	.	2.b-y	.
.	.	2E	-lei-	2G	-lei-	2c	.	2e	-ri-	.	.
.	.	.	.	.	.	.	.	.	.	4a	.
.	.	2F	.	2A	.	4B-y	.	[2d	-e	[2a	.
.	.	.	.	.	.	4A	.	.	.	.	.
=110	=110	=110	=110	=110	=110	=110	=110	=110	=110	=110	=110
1GG	Ky-	1G	.	1B-y	.	1d	.	4d]	.	2a]	.
.	.	.	.	.	.	.	.	4c	.	.	.
.	.	.	.	.	.	.	.	4d	.	2g	-i-
.	.	.	.	.	.	.	.	4e	.	.	.
[1D	.	1F	-son,	2A	-son,	2d	-son,	2f	.	[1a	-son,
.	.	.	.	2D	Ky-	[2f	Ky-	[2F	e-	.	.
=111	=111	=111	=111	=111	=111	=111	=111	=111	=111	=111	=111
2D]	.	0r	.	1.A	.	2f]	.	2F]	.	1a]	.
2C	-ri-	.	.	.	.	2e	-ri-	1c	-le-	.	.
2AA	-e	.	.	.	.	2c	-e	.	.	1r	.
2BB-y	e-	.	.	2G	-ri-	2d	e-	2B-y	.	.	.
=112	=112	=112	=112	=112	=112	=112	=112	=112	=112	=112	=112
1C	-le-	2r	.	2E	-e e-	1e	-lei-	2.G	.	2r	.
.	.	2C	Ky-	1G	-lei-	.	.	.	.	1g	Ky-
.	.	.	.	.	.	.	.	4A	.	.	.
2.GG	.	[1G	.	.	.	2.d	.	2B-y	.	.	.
.	.	.	.	4F	.	.	.	2G	.	[2b-y	.
4AA	.	.	.	4E	.	4c	.	.	.	.	.
=113	=113	=113	=113	=113	=113	=113	=113	=113	=113	=113	=113
4BB-y	.	2G]	.	1D	-son,	4d	.	1.d	.	2b-]	.
4C	.	.	.	.	.	4e	.	.	.	.	.
2D	.	2F	-ri-	.	.	1f	.	.	.	2a	-ri-
2BB-y	.	2D	-e	1r	.	.	.	.	.	2b-y	-e
2C	.	2E	e-	.	.	[2e	.	2c	.	4a	.
.	.	.	.	.	.	.	.	.	.	4g	.
=114	=114	=114	=114	=114	=114	=114	=114	=114	=114	=114	=114
2.D	.	2.F	-le-	2r	.	2e]	.	2A	.	2.f	.
.	.	.	.	2D	Ky-	2d	.	2B-y	-i-	.	.
4C	.	4E	.	.	.	.	.	.	.	4g	e-
1AA	.	2C	.	[1A	.	2e	.	[1c	-son,	2a	-lei-
.	.	2D	.	.	.	[2c	.	.	.	4g	.
.	.	.	.	.	.	.	.	.	.	4f	.
=115	=115	=115	=115	=115	=115	=115	=115	=115	=115	=115	=115
1.C	.	1E-X	.	2A]	.	4c]	.	1c]	.	4e	.
.	.	.	.	.	.	4d	.	.	.	4d	.
.	.	.	.	2G	-ri-	1e-X	.	.	.	2.g	.
.	.	2C	.	2E	-e	.	.	1r	.	.	.
.	.	.	.	.	.	.	.	.	.	4a	.
2BB-y	.	2D	-i-	2F	e-	2d	.	.	.	[2b-y	.
=116	=116	=116	=116	=116	=116	=116	=116	=116	=116	=116	=116
2GG	.	1E	-son,	2G	-le-	2B-y	.	0r	.	2b-]	.
2AA	.	.	.	4F	.	2c	.	.	.	2a	.
.	.	.	.	4E	.	.	.	.	.	.	.
2.BB-y	.	2r	.	2D	.	1d	.	.	.	2.f	.
.	.	2D	Ky-	[2F	.	.	.	.	.	.	.
4AA	-i-	.	.	.	.	.	.	.	.	4g	.
=117	=117	=117	=117	=117	=117	=117	=117	=117	=117	=117	=117
1FF	-son,	1.F	.	4F]	.	0c	-son,	1.A	Ky-	2a	.
.	.	.	.	4G	.	.	.	.	.	.	.
.	.	.	.	2A	.	.	.	.	.	4g	.
.	.	.	.	.	.	.	.	.	.	4f	.
1r	.	.	.	2F	.	.	.	.	.	2a	.
.	.	2E	-ri-	2G	.	.	.	[2c	.	2g	.
=118	=118	=118	=118	=118	=118	=118	=118	=118	=118	=118	=118
0r	.	2F	-e e-	2A	.	0r	.	2c]	.	1f	.
.	.	2D	-lei-	4F	.	.	.	2B-y	-ri-	.	.
.	.	.	.	4G	.	.	.	.	.	.	.
.	.	1C	-son,	4A	.	.	.	2c	-e,	2e	-son,
.	.	.	.	4B-y	.	.	.	.	.	.	.
.	.	.	.	[2c	.	.	.	4B-y	.	4d	.
.	.	.	.	.	.	.	.	4A	.	4c	.
=119	=119	=119	=119	=119	=119	=119	=119	=119	=119	=119	=119
1GG	Ky-	1r	.	2c]	.	0r	.	1G	.	0d	.
.	.	.	.	1B-y	.	.	.	.	.	.	.
[1BB-y	.	1D	Ky-	.	.	.	.	2r	.	.	.
.	.	.	.	4A	.	.	.	[2d	Ky-	.	.
.	.	.	.	4G	.	.	.	.	.	.	.
=120	=120	=120	=120	=120	=120	=120	=120	=120	=120	=120	=120
2BB-]	.	1.F	.	2F	.	1r	.	2d]	.	0r	.
2AA	-ri-	.	.	2A	-i-	.	.	2c	-ri-	.	.
2BB-y	-e	.	.	1G	-son,	1G	Ky-	2d	-e	.	.
2C	e-	2E	-ri-	.	.	.	.	2e	e-	.	.
=121	=121	=121	=121	=121	=121	=121	=121	=121	=121	=121	=121
2D	-lei-	2F	-e	1r	.	1.B-y	.	2d	-lei-	0r	.
2E	.	2G	e-	.	.	.	.	4c	.	.	.
.	.	.	.	.	.	.	.	4B-y	.	.	.
1C	.	1E	-le-	2r	.	.	.	1c	-son,	.	.
.	.	.	.	2C	Ky-	2A	-ri-	.	.	.	.
=122	=122	=122	=122	=122	=122	=122	=122	=122	=122	=122	=122
2BB-y	.	2D	.	1.F	.	2B-y	-e	2r	.	1r	.
2AA	.	2C	.	.	.	2c	e-	2c	e-	.	.
2BB-y	.	1G	.	.	.	2d	-le-	2B-y	-lei-	2r	.
2C	.	.	.	2E	-ri-	2e	-i-	4A	.	2c	Ky-
.	.	.	.	.	.	.	.	4G	.	.	.
=123	=123	=123	=123	=123	=123	=123	=123	=123	=123	=123	=123
1FF	.	2F	-i-	1F	-e	0c	-son,	1A	-son,	1.f	.
.	.	2.C	-son,	.	.	.	.	.	.	.	.
1C	-son,	.	.	1G	.	.	.	2G	Ky-	.	.
.	.	4D	.	.	.	.	.	.	.	.	.
.	.	4E	.	.	.	.	.	[2c	.	2e	-ri-
.	.	4C	.	.	.	.	.	.	.	.	.
=124	=124	=124	=124	=124	=124	=124	=124	=124	=124	=124	=124
0r	.	1D	.	2F	.	1r	.	2c]	.	2.f	-e
.	.	.	.	2B-y	e-	.	.	2B-y	-ri-	.	.
.	.	.	.	.	.	.	.	.	.	4g	.
.	.	1r	.	2A	-le-	2r	.	2c	-e	2a	.
.	.	.	.	[2G	.	2G	Ky-	2d	e-	2b-y	e-
=125	=125	=125	=125	=125	=125	=125	=125	=125	=125	=125	=125
1r	.	0r	.	2G]	.	1.c	.	2e	-le-	2g	-le-
.	.	.	.	2F	-i-	.	.	2f	.	2a	.
1GG	Ky-	.	.	1G	-son,	.	.	1d	.	4b-y	.
.	.	.	.	.	.	.	.	.	.	4a	.
.	.	.	.	.	.	2B-y	-ri-	.	.	4g	.
.	.	.	.	.	.	.	.	.	.	4f	.
=126	=126	=126	=126	=126	=126	=126	=126	=126	=126	=126	=126
1.C	.	2r	.	0r	.	1.c	-e	1G	.	1e	.
.	.	2C	Ky-	.	.	.	.	.	.	.	.
.	.	1F	.	.	.	.	.	2A	.	2.f	.
2BB-y	-ri-	.	.	.	.	2d	e-	2B-y	-i-	.	.
.	.	.	.	.	.	.	.	.	.	8eL	.
.	.	.	.	.	.	.	.	.	.	8dJ	.
=127	=127	=127	=127	=127	=127	=127	=127	=127	=127	=127	=127
2C	-e	2E	-ri-	1r	.	2e	-le-	1A	-son,	2c	.
2D	e-	2F	-e	.	.	2.d	.	.	.	1f	.
2E	-lei-	2G	e-	1C	Ky-	.	.	1r	.	.	.
.	.	.	.	.	.	4c	.	.	.	.	.
4D	.	[2A	-le-	.	.	[2c	.	.	.	2e	-i-
4C	.	.	.	.	.	.	.	.	.	.	.
=128	=128	=128	=128	=128	=128	=128	=128	=128	=128	=128	=128
1D	.	2A]	.	1.F	.	2c]	.	1r	.	1f	-son,
.	.	4G	.	.	.	2B-y	.	.	.	.	.
.	.	4F	.	.	.	.	.	.	.	.	.
1C	-son,	2G	.	.	.	2c	.	2.G	Ky-	2r	.
.	.	2C	.	2E	-ri-	2e	.	.	.	2g	e-
.	.	.	.	.	.	.	.	4A	.	.	.
=129	=129	=129	=129	=129	=129	=129	=129	=129	=129	=129	=129
2r	.	2D	.	2F	-e	2d	.	2B-y	.	2f	-le-
2.C	e-	2E	.	2G	e-	2c	.	2c	-ri-	2e	.
.	.	2C	.	2E	-le-	2e	.	2G	-e	2.g	.
4BB-y	.	.	.	.	.	.	.	.	.	.	.
2GG	.	2D	.	[2G	.	[2d	.	[2B-y	e-	.	.
.	.	.	.	.	.	.	.	.	.	4f	.
=130	=130	=130	=130	=130	=130	=130	=130	=130	=130	=130	=130
2.BB-y	-le-	2BB-y	.	4G]	.	2d]	.	4B-]	.	2d	.
.	.	.	.	4F	.	.	.	4A	.	.	.
.	.	2D	.	2D	.	2B-y	-i-	4F	.	2.f	.
4AA	-i-	.	.	.	.	.	.	4G	.	.	.
[1FF	-son,	2C	.	2.F	.	[1c	-son,	4A	.	.	.
.	.	.	.	.	.	.	.	4B-y	.	4g	.
.	.	[2F	.	.	.	.	.	2c	.	4a	.
.	.	.	.	4G	.	.	.	.	.	4b-y	.
=131	=131	=131	=131	=131	=131	=131	=131	=131	=131	=131	=131
1FF]	.	4F]	.	4A	.	1c]	.	2F	.	2cc	.
.	.	4G	.	4B-y	.	.	.	.	.	.	.
.	.	2A	.	2c	.	.	.	2.f	-le-	1a	.
2.F	e-	2F	.	1A	.	2r	.	.	.	.	.
.	.	.	.	.	.	.	.	4e	.	.	.
.	.	2A	.	.	.	2f	e-	2c	.	[2cc	.
4E	.	.	.	.	.	.	.	.	.	.	.
=132	=132	=132	=132	=132	=132	=132	=132	=132	=132	=132	=132
2C	.	2G	.	2.c	.	1g	-le-	2.e	.	4cc]	.
.	.	.	.	.	.	.	.	.	.	4b-y	.
2.E	-lei-	2E	.	.	.	.	.	.	.	2g	.
.	.	.	.	4B-y	.	.	.	4d	.	.	.
.	.	2G	.	2G	.	2e-X	.	2B-y	.	2.b-y	.
4D	.	.	.	.	.	.	.	.	.	.	.
2BB-y	.	2F	.	[2B-y	.	[2f	.	[2d	.	.	.
.	.	.	.	.	.	.	.	.	.	4a	.
=133	=133	=133	=133	=133	=133	=133	=133	=133	=133	=133	=133
2.D	.	2D	.	4B-]	.	2f]	.	4d]	.	2f	.
.	.	.	.	4A	.	.	.	4c	.	.	.
.	.	2F	.	2F	.	2d	.	2A	.	2.a	.
4C	.	.	.	.	.	.	.	.	.	.	.
2AA	.	2E	.	2.A	.	1e	.	2.c	.	.	.
.	.	.	.	.	.	.	.	.	.	4g	.
[2C	.	2C	.	.	.	.	.	.	.	2e	.
.	.	.	.	4G	-i-	.	.	4B-y	.	.	.
=134	=134	=134	=134	=134	=134	=134	=134	=134	=134	=134	=134
4C]	.	2E	.	2E	-son,	2c	.	2G	.	2.g	.
4BB-y	.	.	.	.	.	.	.	.	.	.	.
2GG	.	2D	.	2.G	e-	1d	.	2.B-y	.	.	.
.	.	.	.	.	.	.	.	.	.	4f	-i-
2.BB-y	.	2BB-y	.	.	.	.	.	.	.	2d	-son,
.	.	.	.	4F	.	.	.	4A	.	.	.
.	.	2D	.	2D	.	2B-y	-i-	2F	.	[2f	e-
4AA	.	.	.	.	.	.	.	.	.	.	.
=135	=135	=135	=135	=135	=135	=135	=135	=135	=135	=135	=135
1FF	.	1.C	.	2F	-lei-	2.c	-son,	2A	.	4f]	.
.	.	.	.	.	.	.	.	.	.	4e	.
.	.	.	.	2A	.	.	.	2.c	.	4c	-le-
.	.	.	.	.	.	4B-y	.	.	.	4d	.
1C	.	.	.	1G	.	2G	.	.	.	4e	.
.	.	.	.	.	.	.	.	4B-y	.	4f	.
.	.	2E	.	.	.	[2c	e-	2G	.	4g	.
.	.	.	.	.	.	.	.	.	.	4e	-i-
=136	=136	=136	=136	=136	=136	=136	=136	=136	=136	=136	=136
1FF	-son,	2D	.	[0Fl	-son.	4c]	.	2A	.	[0fl	-son.
.	.	.	.	.	.	4B-y	.	.	.	.	.
.	.	2C	-i-	.	.	4A	.	2c	-i-	.	.
.	.	.	.	.	.	4G	.	.	.	.	.
1BB-y	e-	2D	-son,	.	.	2F	.	2B-y	-son,	.	.
.	.	2BB-y	e-	.	.	[2B-y	-lei-	[2d	e-	.	.
=137	=137	=137	=137	=137	=137	=137	=137	=137	=137	=137	=137
2BB-y	-lei-	2.F	-le-	0F_	.	2B-]	.	2d]	.	0f_	.
2AA	.	.	.	.	.	2c	.	2c	.	.	.
.	.	4E	.	.	.	.	.	.	.	.	.
1BB-y	.	2D	.	.	.	1d	.	1B-y	-lei-	.	.
.	.	2BB-y	-i-	.	.	.	.	.	.	.	.
=138	=138	=138	=138	=138	=138	=138	=138	=138	=138	=138	=138
00FFl	-son.	00Cl	-son.	00F]	.	00cl	-son.	00Al	-son.	00f]	.
==	==	==	==	==	==	==	==	==	==	==	==
*-	*-	*-	*-	*-	*-	*-	*-	*-	*-	*-	*-
!!!system-decoration: [*]
!!!RDF**kern: i = editorial accidental
!!!RDF**kern: l = terminal long
!!!ENC: Benjamin Ory
!!!END: 2021/5/25
!!!EED: Benjamin Ory
!!!EEV: 2021/05/25
!!!YEC: Copyright 2021 Benjamin Ory, All Rights Reserved
!!!ONB: Translated from MusicXML on 2021/05/25
